X: 26004
T: Mayor Harrison's Fedora
R: reel
M: 4/4
K: Edorian
|:GBEG ~B2 AF|GFGA B2AG|FADF ADFA|dedB AGF2|
GBEG ~B2 AF|GFGA B2 Bc|dedB AGFA|GEFD E4:|
|:Beed e2 ef|g2 fg edBA|GABc d3c|dfaf gfed|
Beed e2 ef|g2 fg edBc|dedB AGFA|GEFD E4:|
|:G2GF GABc|dAAG FDD2|Beed efge|fedf e2Bc|
dedB AGFA|GBAF GABc|dedB AGFA|GEFD E4:|

